public/logos/AC.svg

<?xml version="1.0" encoding="UTF-8"?>
<svg xmlns="http://www.w3.org/2000/svg" xmlns:xlink="http://www.w3.org/1999/xlink" width="176pt" height="22.94pt" viewBox="0 0 176 22.94" version="1.1">
<defs>
<clipPath id="clip1">
  <path d="M 0 0 L 24 0 L 24 22.941406 L 0 22.941406 Z M 0 0 "/>
</clipPath>
</defs>
<g id="surface1">
<g clip-path="url(#clip1)" clip-rule="nonzero">
<path style=" stroke:none;fill-rule:nonzero;fill:rgb(92.889404%,10.246277%,16.822815%);fill-opacity:1;" d="M 12.128906 16.324219 C 12.128906 15.550781 12.460938 15.441406 13.234375 15.882812 C 14.554688 16.65625 15.878906 17.316406 15.878906 17.316406 C 15.878906 16.875 16.320312 16.542969 17.09375 16.765625 C 17.863281 16.984375 18.636719 17.09375 18.636719 17.09375 C 18.636719 17.09375 18.195312 16.101562 17.976562 15.660156 C 17.644531 14.890625 17.976562 14.449219 18.304688 14.339844 C 18.304688 14.339844 17.863281 14.007812 17.535156 13.789062 C 16.871094 13.347656 16.980469 12.792969 17.644531 12.574219 C 18.527344 12.132812 19.738281 11.691406 19.738281 11.691406 C 19.410156 11.472656 18.96875 10.921875 19.410156 10.148438 C 19.847656 9.488281 20.621094 8.492188 20.621094 8.492188 C 20.621094 8.492188 19.410156 8.492188 18.527344 8.492188 C 17.753906 8.492188 17.535156 7.832031 17.535156 7.390625 C 17.535156 7.390625 16.320312 8.273438 15.4375 8.824219 C 14.667969 9.375 14.003906 8.824219 14.113281 7.941406 C 14.335938 6.621094 14.445312 5.074219 14.445312 5.074219 C 14.003906 5.515625 13.234375 5.40625 12.792969 4.746094 C 12.242188 3.640625 11.691406 2.320312 11.691406 2.320312 C 11.691406 2.320312 11.136719 3.640625 10.585938 4.746094 C 10.257812 5.40625 9.484375 5.515625 9.042969 5.1875 C 9.042969 5.1875 9.152344 6.730469 9.375 8.054688 C 9.484375 8.824219 8.824219 9.375 8.050781 8.824219 C 7.167969 8.273438 5.84375 7.390625 5.84375 7.390625 C 5.84375 7.832031 5.625 8.382812 4.851562 8.492188 C 3.96875 8.492188 2.757812 8.492188 2.757812 8.492188 C 2.757812 8.492188 3.527344 9.488281 3.96875 10.148438 C 4.410156 10.808594 3.96875 11.472656 3.640625 11.691406 C 3.640625 11.691406 4.742188 12.242188 5.734375 12.574219 C 6.394531 12.90625 6.617188 13.347656 5.84375 13.789062 C 5.625 14.007812 5.074219 14.339844 5.074219 14.339844 C 5.511719 14.449219 5.84375 14.890625 5.511719 15.660156 C 5.292969 16.101562 4.851562 17.09375 4.851562 17.09375 C 4.851562 17.09375 5.625 16.875 6.394531 16.765625 C 7.167969 16.542969 7.5 16.984375 7.609375 17.316406 C 7.609375 17.316406 8.933594 16.542969 10.257812 15.882812 C 10.917969 15.441406 11.359375 15.660156 11.359375 16.324219 L 11.359375 18.199219 C 11.359375 19.300781 11.136719 20.402344 10.808594 21.066406 C 5.84375 20.515625 1.65625 16.542969 1.65625 11.25 C 1.65625 5.847656 6.175781 1.4375 11.800781 1.4375 C 17.421875 1.4375 21.945312 5.847656 21.945312 11.25 C 21.945312 16.324219 17.976562 20.515625 12.902344 21.066406 L 12.902344 22.386719 C 18.855469 21.835938 23.488281 17.09375 23.488281 11.25 C 23.488281 4.964844 18.195312 0.00390625 11.691406 0.00390625 C 5.292969 0.00390625 0 4.964844 0 11.140625 C 0 16.542969 4.082031 21.066406 9.484375 22.058594 C 10.367188 22.277344 10.917969 22.386719 11.46875 22.941406 C 12.019531 21.835938 12.128906 19.632812 12.128906 18.417969 L 12.128906 16.324219 "/>
</g>
<path style=" stroke:none;fill-rule:nonzero;fill:rgb(16.30249%,14.402771%,12.857056%);fill-opacity:1;" d="M 62.085938 10.589844 L 63.296875 10.589844 C 66.496094 10.589844 67.15625 10.039062 67.15625 8.492188 C 67.15625 6.949219 65.722656 6.730469 63.628906 6.730469 L 62.085938 6.730469 Z M 59.4375 17.09375 L 59.4375 5.1875 L 65.28125 5.1875 C 68.371094 5.1875 69.804688 6.507812 69.914062 8.164062 C 69.914062 8.933594 69.804688 9.707031 69.253906 10.257812 C 68.703125 10.808594 68.480469 11.03125 67.488281 11.582031 L 71.898438 17.207031 L 68.703125 17.207031 L 64.730469 12.132812 L 62.085938 12.132812 L 62.085938 17.09375 L 59.4375 17.09375 "/>
<path style=" stroke:none;fill-rule:nonzero;fill:rgb(16.30249%,14.402771%,12.857056%);fill-opacity:1;" d="M 37.382812 12.355469 L 41.464844 12.355469 L 39.367188 7.613281 Z M 33.304688 17.09375 L 38.484375 5.1875 L 41.683594 5.1875 L 46.867188 17.09375 L 43.667969 17.09375 L 42.234375 13.898438 L 36.722656 13.898438 L 35.289062 17.09375 L 33.304688 17.09375 "/>
<path style=" stroke:none;fill-rule:nonzero;fill:rgb(16.30249%,14.402771%,12.857056%);fill-opacity:1;" d="M 50.507812 5.1875 L 53.261719 5.1875 L 53.261719 17.09375 L 50.507812 17.09375 L 50.507812 5.1875 "/>
<path style=" stroke:none;fill-rule:nonzero;fill:rgb(16.30249%,14.402771%,12.857056%);fill-opacity:1;" d="M 91.75 16.65625 C 90.425781 17.207031 88.773438 17.425781 86.785156 17.425781 C 84.472656 17.425781 82.597656 16.875 81.273438 15.773438 C 79.949219 14.667969 79.289062 13.125 79.289062 11.140625 C 79.289062 9.15625 79.949219 7.5 81.273438 6.507812 C 82.597656 5.40625 84.472656 4.855469 87.007812 4.855469 C 88.550781 4.855469 90.09375 4.964844 91.75 5.296875 L 91.75 7.28125 C 89.984375 6.730469 88.332031 6.507812 87.117188 6.507812 C 85.574219 6.507812 84.472656 6.949219 83.589844 7.722656 C 82.816406 8.492188 82.375 9.707031 82.375 11.140625 C 82.375 12.574219 82.816406 13.675781 83.699219 14.558594 C 84.582031 15.332031 85.792969 15.773438 87.339844 15.773438 C 88.773438 15.773438 90.316406 15.441406 91.75 14.890625 L 91.75 16.65625 "/>
<path style=" stroke:none;fill-rule:nonzero;fill:rgb(16.30249%,14.402771%,12.857056%);fill-opacity:1;" d="M 99.359375 12.355469 L 103.4375 12.355469 L 101.453125 7.613281 Z M 95.167969 17.09375 L 100.351562 5.1875 L 103.550781 5.1875 L 108.730469 17.09375 L 105.535156 17.09375 L 104.101562 13.898438 L 98.585938 13.898438 L 97.152344 17.09375 L 95.167969 17.09375 "/>
<path style=" stroke:none;fill-rule:nonzero;fill:rgb(16.30249%,14.402771%,12.857056%);fill-opacity:1;" d="M 133.765625 12.355469 L 137.84375 12.355469 L 135.75 7.613281 Z M 129.683594 17.09375 L 134.867188 5.1875 L 138.066406 5.1875 L 143.246094 17.09375 L 140.050781 17.09375 L 138.617188 13.898438 L 133.101562 13.898438 L 131.667969 17.09375 L 129.683594 17.09375 "/>
<path style=" stroke:none;fill-rule:nonzero;fill:rgb(16.30249%,14.402771%,12.857056%);fill-opacity:1;" d="M 167.617188 5.1875 L 162.4375 17.09375 L 164.421875 17.09375 L 165.855469 13.898438 L 171.367188 13.898438 L 172.800781 17.09375 L 176 17.09375 L 170.816406 5.1875 Z M 168.5 7.613281 L 170.597656 12.355469 L 166.515625 12.355469 Z M 168.5 7.613281 "/>
<path style=" stroke:none;fill-rule:nonzero;fill:rgb(16.30249%,14.402771%,12.857056%);fill-opacity:1;" d="M 112.703125 17.09375 L 112.703125 5.1875 L 115.898438 5.1875 L 123.398438 13.675781 L 123.398438 5.1875 L 125.714844 5.1875 L 125.714844 17.09375 L 122.738281 17.09375 L 115.019531 8.164062 L 115.019531 17.09375 L 112.703125 17.09375 "/>
<path style=" stroke:none;fill-rule:nonzero;fill:rgb(16.30249%,14.402771%,12.857056%);fill-opacity:1;" d="M 149.863281 15.441406 L 151.960938 15.441406 C 153.394531 15.441406 154.496094 15.109375 155.269531 14.339844 C 156.039062 13.566406 156.371094 12.574219 156.371094 11.03125 C 156.371094 9.925781 156.039062 8.933594 155.488281 8.164062 C 155.046875 7.613281 154.605469 7.28125 154.054688 7.058594 C 153.503906 6.839844 152.730469 6.730469 151.628906 6.730469 L 149.976562 6.730469 L 149.976562 15.441406 Z M 147.105469 17.09375 L 147.105469 5.1875 L 152.84375 5.1875 C 154.9375 5.1875 156.480469 5.738281 157.585938 6.621094 C 158.6875 7.613281 159.238281 9.046875 159.238281 10.808594 C 159.238281 12.792969 158.6875 14.339844 157.472656 15.332031 C 156.261719 16.433594 154.71875 16.984375 152.621094 16.984375 L 147.105469 16.984375 L 147.105469 17.09375 "/>
</g>
</svg>

<svg xmlns="http://www.w3.org/2000/svg" width="176pt" height="30.587" viewBox="0 0 176 22.94"><defs><clipPath id="a"><path d="M0 0h24v22.941H0Zm0 0"/></clipPath></defs><g clip-path="url(#a)"><path d="M12.129 16.324c0-.773.332-.883 1.105-.441a51 51 0 0 0 2.645 1.433c0-.441.441-.773 1.215-.55.77.218 1.543.328 1.543.328s-.442-.992-.66-1.434c-.332-.77 0-1.21.328-1.32 0 0-.442-.332-.77-.55-.664-.442-.555-.997.11-1.216.882-.441 2.093-.883 2.093-.883-.328-.218-.77-.77-.328-1.543.438-.66 1.211-1.656 1.211-1.656h-2.094c-.773 0-.992-.66-.992-1.101 0 0-1.215.882-2.097 1.433-.77.551-1.434 0-1.325-.883.223-1.32.332-2.867.332-2.867-.441.442-1.21.332-1.652-.328-.55-1.105-1.102-2.426-1.102-2.426s-.554 1.32-1.105 2.426c-.328.66-1.102.77-1.543.441 0 0 .11 1.543.332 2.868.11.77-.55 1.32-1.324.77-.883-.552-2.207-1.434-2.207-1.434 0 .441-.219.992-.992 1.101H2.758s.77.996 1.21 1.656c.442.66 0 1.325-.327 1.543 0 0 1.101.551 2.093.883.66.332.883.774.11 1.215-.219.219-.77.55-.77.55.438.11.77.552.438 1.321-.219.442-.66 1.434-.66 1.434s.773-.219 1.543-.328c.773-.223 1.105.218 1.214.55 0 0 1.325-.773 2.649-1.433.66-.442 1.101-.223 1.101.441V18.2c0 1.102-.222 2.203-.55 2.867-4.965-.55-9.153-4.523-9.153-9.816 0-5.402 4.52-9.812 10.145-9.812 5.62 0 10.144 4.41 10.144 9.812 0 5.074-3.968 9.266-9.043 9.816v1.32c5.953-.55 10.586-5.292 10.586-11.136 0-6.285-5.293-11.246-11.797-11.246C5.293.004 0 4.964 0 11.14c0 5.402 4.082 9.925 9.484 10.918.883.218 1.434.328 1.985.882.55-1.105.66-3.308.66-4.523z" style="stroke:none;fill-rule:nonzero;fill:#ed1a2b;fill-opacity:1"/></g><path d="M62.086 10.59h1.21c3.2 0 3.86-.55 3.86-2.098 0-1.543-1.433-1.762-3.527-1.762h-1.543Zm-2.648 6.504V5.187h5.843c3.09 0 4.524 1.32 4.633 2.977 0 .77-.11 1.543-.66 2.094s-.774.773-1.766 1.324l4.41 5.625h-3.195l-3.973-5.074h-2.644v4.96zM37.383 12.355h4.082l-2.098-4.742Zm-4.078 4.739 5.18-11.907h3.199l5.183 11.907h-3.199l-1.434-3.196h-5.511l-1.434 3.196zM50.508 5.188h2.754v11.906h-2.754zM91.75 16.656c-1.324.551-2.977.77-4.965.77-2.312 0-4.187-.551-5.512-1.653q-1.985-1.657-1.984-4.632c0-1.985.66-3.641 1.984-4.633 1.325-1.102 3.2-1.653 5.735-1.653 1.543 0 3.086.11 4.742.442V7.28c-1.766-.55-3.418-.773-4.633-.773-1.543 0-2.644.441-3.527 1.215-.774.77-1.215 1.984-1.215 3.418 0 1.433.441 2.535 1.324 3.418.883.773 2.094 1.214 3.64 1.214 1.434 0 2.977-.332 4.411-.882zM99.36 12.355h4.078l-1.985-4.742Zm-4.192 4.739 5.184-11.907h3.199l5.18 11.907h-3.196l-1.433-3.196h-5.516l-1.434 3.196zM133.766 12.355h4.078l-2.094-4.742Zm-4.082 4.739 5.183-11.907h3.2l5.18 11.907h-3.196l-1.434-3.196h-5.515l-1.434 3.196zM167.617 5.188l-5.18 11.906h1.985l1.433-3.196h5.512l1.434 3.196H176l-5.184-11.907Zm.883 2.425 2.098 4.742h-4.082ZM112.703 17.094V5.187h3.195l7.5 8.489V5.188h2.317v11.906h-2.977l-7.718-8.93v8.93zM149.863 15.441h2.098c1.434 0 2.535-.332 3.309-1.101.77-.774 1.101-1.766 1.101-3.309 0-1.105-.332-2.097-.883-2.867-.441-.55-.883-.883-1.433-1.105-.551-.22-1.325-.329-2.426-.329h-1.652v8.711Zm-2.758 1.653V5.187h5.739c2.094 0 3.636.551 4.742 1.434 1.101.992 1.652 2.426 1.652 4.188 0 1.984-.55 3.53-1.765 4.523-1.211 1.102-2.754 1.652-4.852 1.652h-5.516z" style="stroke:none;fill-rule:nonzero;fill:#2a2521;fill-opacity:1"/></svg>
